X:1
T:Fire Down Below
M:4/4
L:1/8
K:D
 A2 AA B2 B2| A2 AF E4| D3/2- E/2 F3/2 D/2 G2 G3/2 G/2| F2 E2 C D3|\
 A4 B4| A2 A2 F E2 D| D3 EF F D2| G3 A B3 G| F4 E3 E| D4 z4|
